Newaita/actions/16/format-join-node.svg

<svg height="16" viewBox="0 0 16 16" width="16" xmlns="http://www.w3.org/2000/svg"><g fill="#424242"><path d="m9.921875 1.449219v4.628906h4.632813v-3.96875c0-.367187-.296876-.660156-.664063-.660156zm1.324219 1.320312h1.652344c.183593 0 .332031.148438.332031.332031v1.652344h-1.984375zm0 0"/><path d="m5.953125 1.449219v4.628906h-4.628906v-3.96875c0-.367187.292969-.660156.660156-.660156zm-1.324219 1.320312h-1.652344c-.183593 0-.332031.148438-.332031.332031v1.652344h1.984375zm0 0"/><path d="m9.261719 11.703125h5.292969v1.320313h-5.292969zm0 0"/><path d="m5.292969 3.101562h5.292969v1.324219h-5.292969zm0 0"/><path d="m9.59375 7.402344h-3.308594l1.652344 1.984375zm0 0"/><path d="m6.285156 10.046875c-.367187 0-.664062.296875-.664062.664063v3.304687c0 .367187.296875.664063.664062.664063h3.308594c.363281 0 .660156-.296876.660156-.664063v-3.304687c0-.367188-.296875-.664063-.660156-.664063zm.992188 1.324219h1.324218c.179688 0 .328126.148437.328126.332031v1.320313c0 .183593-.148438.332031-.328126.332031h-1.324218c-.183594 0-.332032-.148438-.332032-.332031v-1.320313c0-.183594.148438-.332031.332032-.332031zm0 0"/><path d="m1.324219 11.703125h5.289062v1.320313h-5.289062zm0 0"/></g></svg>

<?xml version="1.0" encoding="UTF-8"?>
<svg xmlns="http://www.w3.org/2000/svg" xmlns:xlink="http://www.w3.org/1999/xlink" width="16px" height="16px" viewBox="0 0 16 16" version="1.1">
<g id="surface1">
<path style=" stroke:none;fill-rule:nonzero;fill:rgb(25.882354%,25.882354%,25.882354%);fill-opacity:1;" d="M 9.921875 1.449219 L 9.921875 6.078125 L 14.554688 6.078125 L 14.554688 2.109375 C 14.554688 1.742188 14.257812 1.449219 13.890625 1.449219 Z M 11.246094 2.769531 L 12.898438 2.769531 C 13.082031 2.769531 13.230469 2.917969 13.230469 3.101562 L 13.230469 4.753906 L 11.246094 4.753906 Z M 11.246094 2.769531 "/>
<path style=" stroke:none;fill-rule:nonzero;fill:rgb(25.882354%,25.882354%,25.882354%);fill-opacity:1;" d="M 5.953125 1.449219 L 5.953125 6.078125 L 1.324219 6.078125 L 1.324219 2.109375 C 1.324219 1.742188 1.617188 1.449219 1.984375 1.449219 Z M 4.628906 2.769531 L 2.976562 2.769531 C 2.792969 2.769531 2.644531 2.917969 2.644531 3.101562 L 2.644531 4.753906 L 4.628906 4.753906 Z M 4.628906 2.769531 "/>
<path style=" stroke:none;fill-rule:nonzero;fill:rgb(25.882354%,25.882354%,25.882354%);fill-opacity:1;" d="M 9.261719 11.703125 L 14.554688 11.703125 L 14.554688 13.023438 L 9.261719 13.023438 Z M 9.261719 11.703125 "/>
<path style=" stroke:none;fill-rule:nonzero;fill:rgb(25.882354%,25.882354%,25.882354%);fill-opacity:1;" d="M 5.292969 3.101562 L 10.585938 3.101562 L 10.585938 4.425781 L 5.292969 4.425781 Z M 5.292969 3.101562 "/>
<path style=" stroke:none;fill-rule:nonzero;fill:rgb(25.882354%,25.882354%,25.882354%);fill-opacity:1;" d="M 9.59375 7.402344 L 6.285156 7.402344 L 7.9375 9.386719 Z M 9.59375 7.402344 "/>
<path style=" stroke:none;fill-rule:nonzero;fill:rgb(25.882354%,25.882354%,25.882354%);fill-opacity:1;" d="M 6.285156 10.046875 C 5.917969 10.046875 5.621094 10.34375 5.621094 10.710938 L 5.621094 14.015625 C 5.621094 14.382812 5.917969 14.679688 6.285156 14.679688 L 9.59375 14.679688 C 9.957031 14.679688 10.253906 14.382812 10.253906 14.015625 L 10.253906 10.710938 C 10.253906 10.34375 9.957031 10.046875 9.59375 10.046875 Z M 7.277344 11.371094 L 8.601562 11.371094 C 8.78125 11.371094 8.929688 11.519531 8.929688 11.703125 L 8.929688 13.023438 C 8.929688 13.207031 8.78125 13.355469 8.601562 13.355469 L 7.277344 13.355469 C 7.09375 13.355469 6.945312 13.207031 6.945312 13.023438 L 6.945312 11.703125 C 6.945312 11.519531 7.09375 11.371094 7.277344 11.371094 Z M 7.277344 11.371094 "/>
<path style=" stroke:none;fill-rule:nonzero;fill:rgb(25.882354%,25.882354%,25.882354%);fill-opacity:1;" d="M 1.324219 11.703125 L 6.613281 11.703125 L 6.613281 13.023438 L 1.324219 13.023438 Z M 1.324219 11.703125 "/>
</g>
</svg>
